image/l-1/bg-mobile.svg

<svg fill="none" height="587" viewBox="0 0 390 587" width="390" xmlns="http://www.w3.org/2000/svg" xmlns:xlink="http://www.w3.org/1999/xlink"><radialGradient id="a" cx="0" cy="0" gradientTransform="matrix(218.48851744 -601.87372443 631.8299854 229.36305604 123.648 390.177)" gradientUnits="userSpaceOnUse" r="1"><stop offset=".411458" stop-color="#4cbbad" stop-opacity=".56"/><stop offset=".947158" stop-color="#eff3c6" stop-opacity=".65"/></radialGradient><clipPath id="b"><path d="m0 0h390v587h-390z"/></clipPath><clipPath id="c"><path d="m0 0h259.486v147.66h-259.486z" transform="matrix(.70710678 .70710678 -.70710678 .70710678 27.4111 371)"/></clipPath><g clip-path="url(#b)"><path d="m0 0h390v587h-390z" fill="url(#a)"/><g stroke="#fff"><path d="m55.9007 54.3846c-1.3642 1.3641-3.5244 1.3806-4.8253.0797s-1.2844-3.4611.0798-4.8252c1.3641-1.3642 3.5243-1.3807 4.8252-.0798s1.2844 3.4611-.0797 4.8253z"/><path d="m54.2395 45.2079c-.4467.4468-1.1407.4422-1.5503.0326s-.4142-1.1036.0326-1.5503c.4467-.4468 1.1407-.4422 1.5503-.0326s.4142 1.1036-.0326 1.5503z"/><path d="m47.9153 46.9154c-.4468.4467-1.1407.4421-1.5503.0325s-.4142-1.1035.0325-1.5503c.4468-.4468 1.1408-.4421 1.5504-.0325.4095.4095.4142 1.1035-.0326 1.5503z"/><path d="m60.3013 46.9154c-.4468.4467-1.1407.4421-1.5503.0325s-.4142-1.1035.0325-1.5503c.4468-.4468 1.1408-.4421 1.5503-.0325.4096.4095.4143 1.1035-.0325 1.5503z"/><path d="m33.5411 30.4694 11.1068 7.1006c1.4705.9401 3.4273.1222 3.7915-1.5847l2.7092-12.6958c.3336-1.5635 2.5555-1.5899 2.9261-.0347l3.0988 13.0034c.396 1.6618 2.305 2.4457 3.7546 1.5419l11.17-6.9647c1.3486-.8408 2.9073.7179 2.0665 2.0665l-6.9647 11.17c-.9038 1.4496-.1199 3.3586 1.5419 3.7546l13.0034 3.0988c1.5552.3706 1.5288 2.5925-.0347 2.9261l-12.6959 2.7092c-1.7068.3642-2.5247 2.321-1.5846 3.7915l7.1006 11.1068c.8661 1.3546-.7171 2.9378-2.0717 2.0717l-11.1068-7.1006c-1.4705-.9401-3.4273-.1222-3.7915 1.5846l-2.7092 12.6959c-.3336 1.5635-2.5555 1.5899-2.9261.0347l-3.0988-13.0034c-.396-1.6618-2.305-2.4457-3.7546-1.5419l-11.17 6.9647c-1.3486.8408-2.9073-.7179-2.0665-2.0665l6.9647-11.17c.9038-1.4496.1199-3.3586-1.5419-3.7546l-13.0034-3.0988c-1.5552-.3706-1.5288-2.5925.0347-2.9261l12.6959-2.7092c1.7068-.3642 2.5247-2.321 1.5846-3.7915l-7.1006-11.1068c-.8661-1.3546.7171-2.9378 2.0717-2.0717z"/><g clip-path="url(#c)" stroke-opacity=".6"><path d="m281.262 945.878c105.35-186.638-13.986-307.351-111.227-335.149-97.2417-27.798-9.665-104.618-49.609-146.689-39.9449-42.07-145.4905-16.523-145.4905-16.523"/><path d="m250.857 964.97c105.35-186.638-13.986-307.351-111.228-335.149-97.2413-27.798-9.664-104.619-49.6089-146.689-39.9445-42.07-145.4902-16.523-145.4902-16.523"/><path d="m214.087 989.011c105.35-186.637-13.986-307.351-111.227-335.148-97.24178-27.798-9.6649-104.619-49.6094-146.689-39.9445-42.071-145.4902-16.523-145.4902-16.523"/></g><path d="m323.861 563.815c-2.315 2.316-5.996 2.354-8.221.129-2.224-2.225-2.186-5.905.129-8.221 2.315-2.315 5.996-2.353 8.221-.128s2.186 5.905-.129 8.22z"/><path d="m328.613 527.613c-3.488 3.489-9.909 3.618-17.695.679-7.739-2.922-16.626-8.811-24.805-16.991-8.18-8.179-14.069-17.066-16.99-24.804-2.939-7.786-2.81-14.207.678-17.696 3.489-3.488 9.91-3.617 17.696-.678 7.738 2.921 16.625 8.81 24.805 16.99 8.179 8.179 14.068 17.066 16.99 24.805 2.939 7.786 2.81 14.206-.679 17.695z"/><path d="m396.272 551.362c-6.404 6.404-13.679 10.69-20.244 12.46-6.58 1.774-12.339.999-15.873-2.534-3.533-3.534-4.308-9.293-2.534-15.873 1.77-6.565 6.056-13.84 12.46-20.244s13.679-10.69 20.244-12.46c6.58-1.773 12.339-.999 15.872 2.535 3.534 3.533 4.308 9.292 2.535 15.872-1.77 6.565-6.056 13.84-12.46 20.244z"/></g></g></svg>

<svg width="390" height="587" viewBox="0 0 390 587" fill="none" xmlns="http://www.w3.org/2000/svg">
<g clip-path="url(#clip0_216_4659)">
<rect width="390" height="587" fill="url(#paint0_radial_216_4659)"/>
<path d="M55.9007 54.3846C54.5365 55.7487 52.3763 55.7652 51.0754 54.4643C49.7745 53.1634 49.791 51.0032 51.1552 49.6391C52.5193 48.2749 54.6795 48.2584 55.9804 49.5593C57.2813 50.8602 57.2648 53.0204 55.9007 54.3846Z" stroke="white"/>
<path d="M54.2395 45.2079C53.7928 45.6547 53.0988 45.6501 52.6892 45.2405C52.2796 44.8309 52.275 44.1369 52.7218 43.6902C53.1685 43.2434 53.8625 43.248 54.2721 43.6576C54.6817 44.0672 54.6863 44.7612 54.2395 45.2079Z" stroke="white"/>
<path d="M47.9153 46.9154C47.4685 47.3621 46.7746 47.3575 46.365 46.9479C45.9554 46.5383 45.9508 45.8444 46.3975 45.3976C46.8443 44.9508 47.5383 44.9555 47.9479 45.3651C48.3574 45.7746 48.3621 46.4686 47.9153 46.9154Z" stroke="white"/>
<path d="M60.3013 46.9154C59.8545 47.3621 59.1606 47.3575 58.751 46.9479C58.3414 46.5383 58.3368 45.8444 58.7835 45.3976C59.2303 44.9508 59.9243 44.9555 60.3338 45.3651C60.7434 45.7746 60.7481 46.4686 60.3013 46.9154Z" stroke="white"/>
<path d="M33.5411 30.4694L44.6479 37.57C46.1184 38.5101 48.0752 37.6922 48.4394 35.9853L51.1486 23.2895C51.4822 21.726 53.7041 21.6996 54.0747 23.2548L57.1735 36.2582C57.5695 37.92 59.4785 38.7039 60.9281 37.8001L72.0981 30.8354C73.4467 29.9946 75.0054 31.5533 74.1646 32.9019L67.1999 44.0719C66.2961 45.5215 67.08 47.4305 68.7418 47.8265L81.7452 50.9253C83.3004 51.2959 83.274 53.5178 81.7105 53.8514L69.0146 56.5606C67.3078 56.9248 66.4899 58.8816 67.43 60.3521L74.5306 71.4589C75.3967 72.8135 73.8135 74.3967 72.4589 73.5306L61.3521 66.43C59.8816 65.4899 57.9248 66.3078 57.5606 68.0146L54.8514 80.7105C54.5178 82.274 52.2959 82.3004 51.9253 80.7452L48.8265 67.7418C48.4305 66.08 46.5215 65.2961 45.0719 66.1999L33.9019 73.1646C32.5533 74.0054 30.9946 72.4467 31.8354 71.0981L38.8001 59.9281C39.7039 58.4785 38.92 56.5695 37.2582 56.1735L24.2548 53.0747C22.6996 52.7041 22.726 50.4822 24.2895 50.1486L36.9854 47.4394C38.6922 47.0752 39.5101 45.1184 38.57 43.6479L31.4694 32.5411C30.6033 31.1865 32.1865 29.6033 33.5411 30.4694Z" stroke="white"/>
<g clip-path="url(#clip1_216_4659)">
<path d="M281.262 945.878C386.612 759.24 267.276 638.527 170.035 610.729C72.7933 582.931 160.37 506.111 120.426 464.04C80.4811 421.97 -25.0645 447.517 -25.0645 447.517" stroke="white" stroke-opacity="0.6"/>
<path d="M250.857 964.97C356.207 778.332 236.871 657.619 139.629 629.821C42.3877 602.023 129.965 525.202 90.0201 483.132C50.0756 441.062 -55.4701 466.609 -55.4701 466.609" stroke="white" stroke-opacity="0.6"/>
<path d="M214.087 989.011C319.437 802.374 200.101 681.66 102.86 653.863C5.61822 626.065 93.1951 549.244 53.2506 507.174C13.3061 465.103 -92.2396 490.651 -92.2396 490.651" stroke="white" stroke-opacity="0.6"/>
</g>
<path d="M323.861 563.815C321.546 566.131 317.865 566.169 315.64 563.944C313.416 561.719 313.454 558.039 315.769 555.723C318.084 553.408 321.765 553.37 323.99 555.595C326.215 557.82 326.176 561.5 323.861 563.815Z" stroke="white"/>
<path d="M328.613 527.613C325.125 531.102 318.704 531.231 310.918 528.292C303.179 525.37 294.292 519.481 286.113 511.301C277.933 503.122 272.044 494.235 269.123 486.497C266.184 478.711 266.313 472.29 269.801 468.801C273.29 465.313 279.711 465.184 287.497 468.123C295.235 471.044 304.122 476.933 312.302 485.113C320.481 493.292 326.37 502.179 329.292 509.918C332.231 517.704 332.102 524.124 328.613 527.613Z" stroke="white"/>
<path d="M396.272 551.362C389.868 557.766 382.593 562.052 376.028 563.822C369.448 565.596 363.689 564.821 360.155 561.288C356.622 557.754 355.847 551.995 357.621 545.415C359.391 538.85 363.677 531.575 370.081 525.171C376.485 518.767 383.76 514.481 390.325 512.711C396.905 510.938 402.664 511.712 406.197 515.246C409.731 518.779 410.505 524.538 408.732 531.118C406.962 537.683 402.676 544.958 396.272 551.362Z" stroke="white"/>
</g>
<defs>
<radialGradient id="paint0_radial_216_4659" cx="0" cy="0" r="1" gradientUnits="userSpaceOnUse" gradientTransform="translate(123.648 390.177) rotate(-70.0484) scale(640.304 672.173)">
<stop offset="0.411458" stop-color="#4CBBAD" stop-opacity="0.56"/>
<stop offset="0.947158" stop-color="#EFF3C6" stop-opacity="0.65"/>
</radialGradient>
<clipPath id="clip0_216_4659">
<rect width="390" height="587" fill="white"/>
</clipPath>
<clipPath id="clip1_216_4659">
<rect width="259.486" height="147.66" fill="white" transform="translate(27.4111 371) rotate(45)"/>
</clipPath>
</defs>
</svg>
